X:1
T:The Peerless Name
T:B. B. Bosworth
T:The Peerless Name
T:Public Domain
T:Public Domain
C:B. B. Bosworth
Z:Public Domain
%%score ( 1 2 ) ( 3 4 )
L:1/8
M:4/4
K:Ab
V:1 treble 
V:2 treble 
V:3 bass 
V:4 bass 
V:1
 [Ec]2 [CE]2 [CF]2 [CE]2 | [B,=D]>[B,^C] [B,D]>[DF] [DB]4 | [Dc]>[DB] [D=A]>[DB] [Ge]2 [Ed]2 | %3
w: 1.~Je- sus! sweet- est|theme in earth or Heav’n!|Dear- er name was ne- ver|
w: 2.~Borne by ho- ly|mess- en- gers of light,|From a land of gold- en|
w: 3.~To the heart it|speaks of bless- ings rare,|And our lips re- peat the|
w: 4.~O my soul would|join the an- gel choir,|Chant- ing His a- maz- ing|
 (c4 d4) | [Ec]2 [CE]2 [CF]2 [CE]2 | [B,=D]>[B,^C] [B,D]>[DF] [DB]4 | %6
w: known; *|th’e- ter- nal Fa-|ther it was giv’n To|
w: day, *|the si- lence of|the star- ry night— List|
w: name, *|be- lov- èd, Fair-|est of the fair, Now|
w: love; *|I feel with- in|a sac- red fire, Kin-|
 [Ee]>[Ed] [DF]>[DG] [Gc]2 [GB]2 | A8 ||"^Refrain" [Ec]>[=D=B] [Ec]>[DB] [Ec]>[CE] [CF]>[CE] | %9
w: His co- e- ter- nal Son.|||
w: to what the an- gels say.|Je-|bless- èd Je- sus, spot- less Son of|
w: and ev- er- more the same.|||
w: dled in the courts a- bove.|||
 [B,=D]2 [DF]2 [DB]4 | [DB]>[D=A] [DB]>[DA] [DB]>[DG] [DF]>[DE] | C2 [CE]2 (E2 _G2) | %12
w: |||
w: God, Dy- ing|to re- deem us by His pre- cious|blood; I would *|
w: |||
w: |||
 [FA]>[=EG] [FA]>[EG] [GB]>[FA] [_EG]>[DF] | [CE]2 [EA]2 [_Fd]4 | %14
w: ||
w: praise to all the earth a- broad, Glo-|ry to His|
w: ||
w: ||
 [Ec]>[EB] [EA]>[DF] [B,E]2 [DB]2 | [CA]8 |] %16
w: ||
w: peer- less name! * * *||
w: ||
w: ||
V:2
 x8 | x8 | x8 | E8 | x8 | x8 | x8 | A8 || x8 | x8 | x8 | C2 A4 x2 | x8 | x8 | x8 | x8 |] %16
w: |||By|||||||||||||
w: |||Thru||||sus,||||speak His|||||
w: |||Hail,|||||||||||||
w: |||For|||||||||||||
V:3
 [A,,A,]2 [A,,A,]2 [A,,E,]2 [A,,A,]2 | [B,,A,]>[B,,A,] [B,,A,]>[B,,A,] [B,,A,]4 | %2
 [E,G,]>[E,G,] [E,G,]>[E,G,] [E,B,]2 [E,G,]2 | (A,4 B,4) | [A,,A,]2 [A,,A,]2 [A,,E,]2 [A,,A,]2 | %5
 [B,,A,]>[B,,A,] [B,,A,]>[B,,A,] [B,,A,]4 | [E,G,]>[E,G,] [E,B,]>[E,B,] [E,E]2 [E,D]2 | [A,C]8 || %8
 [A,,A,]>[A,,A,] [A,,A,]>[A,,A,] [A,,A,]>[A,,A,] [A,,A,]>[A,,A,] | [B,,A,]2 [B,,A,]2 [B,,A,]4 | %10
 [E,G,]>[E,G,] [E,G,]>[E,G,] [E,G,]>[E,G,] [F,A,]>[G,B,] | A,2 A,2 [A,C]4 | %12
 [D,A,]>[D,B,] [D,A,]>[D,A,] [D,D]>[D,D] [D,A,]>[D,A,] | [A,,A,]2 [A,,C]2 [G,,B,]4 | %14
 [A,,A,]>[B,,A,] [C,A,]>[D,A,] [E,A,]2 [E,G,]2 | [A,,A,]8 |] %16
V:4
 x8 | x8 | x8 | E,8 | x8 | x8 | x8 | x8 || x8 | x8 | x8 | A,2 A,2 x4 | x8 | x8 | x8 | x8 |] %16

